packages/foundations/assets/icons/functional/images/security/fingerprint_32.svg

<svg width="32" height="32" viewBox="0 0 32 32" fill="none" xmlns="http://www.w3.org/2000/svg">
<g clip-path="url(#clip0_187_224)">
<path fill-rule="evenodd" clip-rule="evenodd" d="M16.1775 14.451C18.5395 14.451 20.5985 16.133 21.0735 18.448C21.3725 19.917 22.5125 21.056 23.9785 21.352C25.1685 21.593 26.2275 22.255 26.9595 23.216C27.0265 23.305 27.0905 23.394 27.1515 23.487C27.4585 23.946 27.3355 24.567 26.8765 24.874C26.4155 25.181 25.7955 25.059 25.4895 24.599C25.4505 24.541 25.4095 24.484 25.3675 24.429C24.9235 23.846 24.3055 23.46 23.5805 23.314C21.3255 22.858 19.5725 21.105 19.1135 18.849C18.8285 17.46 17.5935 16.452 16.1775 16.452C15.9765 16.452 15.7715 16.473 15.5855 16.512C14.7945 16.671 14.1185 17.126 13.6745 17.794C13.2315 18.463 13.0745 19.265 13.2345 20.051C13.6925 22.306 14.7905 24.357 16.4065 25.982C16.8595 26.437 17.9545 27.383 18.4265 27.728C18.8725 28.054 18.9695 28.68 18.6435 29.125C18.4475 29.394 18.1435 29.535 17.8355 29.535C17.6295 29.534 17.4235 29.472 17.2455 29.342C16.6505 28.906 15.4695 27.874 14.9895 27.392C13.0955 25.489 11.8115 23.088 11.2745 20.449C11.0085 19.138 11.2695 17.803 12.0075 16.688C12.7465 15.574 13.8745 14.815 15.1845 14.551C15.4965 14.487 15.8415 14.451 16.1775 14.451ZM17.1545 19.251C17.7745 22.294 20.1415 24.657 23.1855 25.272C23.7265 25.381 24.0775 25.91 23.9675 26.451C23.8715 26.926 23.4545 27.253 22.9885 27.253C22.9225 27.254 22.8555 27.248 22.7885 27.234C18.9555 26.459 15.9755 23.482 15.1945 19.65C15.0845 19.109 15.4335 18.581 15.9745 18.471C16.5175 18.362 17.0435 18.709 17.1545 19.251ZM9.50251 21.867C9.83451 23.055 10.4165 24.256 11.1835 25.337C11.5035 25.787 11.3975 26.412 10.9465 26.732C10.7715 26.857 10.5695 26.917 10.3685 26.917C10.0555 26.916 9.74651 26.77 9.55251 26.495C8.63951 25.209 7.97451 23.834 7.57651 22.406C7.42751 21.874 7.73851 21.322 8.27051 21.174C8.80351 21.025 9.35451 21.336 9.50251 21.867ZM16.1735 6.465C17.4365 6.465 18.6895 6.649 19.8985 7.012C20.4275 7.171 20.7275 7.729 20.5685 8.257C20.4095 8.787 19.8525 9.084 19.3225 8.928C18.3005 8.62 17.2395 8.465 16.1725 8.465C10.1015 8.465 5.16251 13.404 5.16251 19.476C5.16251 19.858 5.18251 20.237 5.22151 20.612C5.27851 21.162 4.87951 21.653 4.32951 21.711C4.29451 21.714 4.25951 21.716 4.22551 21.716C3.72051 21.715 3.28651 21.332 3.23251 20.819C3.18651 20.376 3.16351 19.924 3.16351 19.476C3.16351 12.302 8.99951 6.465 16.1735 6.465ZM23.6025 8.802C26.1125 10.55 27.9335 13.132 28.7315 16.072C29.1645 17.668 28.2185 19.318 26.6235 19.753C26.4285 19.8047 26.2324 19.8368 26.0377 19.8496L25.8425 19.855L25.6645 19.8506C24.4098 19.775 23.2871 18.9144 22.9425 17.643C22.1155 14.594 19.3325 12.465 16.1745 12.465C12.6935 12.465 9.70851 15.063 9.23051 18.508C9.15451 19.055 8.64451 19.437 8.10251 19.361C7.55551 19.286 7.17351 18.78 7.24851 18.233C7.86351 13.805 11.7005 10.465 16.1735 10.465C20.2315 10.465 23.8085 13.201 24.8725 17.119C25.0165 17.65 25.5665 17.966 26.1025 17.822C26.6305 17.678 26.9465 17.128 26.8015 16.595C26.1265 14.109 24.5845 11.923 22.4595 10.443C22.0065 10.128 21.8955 9.505 22.2105 9.051C22.5255 8.597 23.1495 8.488 23.6025 8.802ZM16.1735 2.465C19.9155 2.465 23.4525 3.66 26.4395 5.923C26.8795 6.256 26.9665 6.883 26.6335 7.323C26.2995 7.762 25.6715 7.85 25.2325 7.516C22.5955 5.52 19.4625 4.464 16.1735 4.464C12.8845 4.464 9.73651 5.521 7.10751 7.519C6.92651 7.657 6.71351 7.723 6.50351 7.723C6.20151 7.724 5.90251 7.588 5.70651 7.329C5.37251 6.889 5.45751 6.262 5.89751 5.928C8.87751 3.662 12.4315 2.465 16.1735 2.465Z" fill="#1A1C1F"/>
</g>
<defs>
<clipPath id="clip0_187_224">
<rect width="32" height="32" fill="white"/>
</clipPath>
</defs>
</svg>

<svg xmlns="http://www.w3.org/2000/svg" width="32" height="32" fill="none"><g clip-path="url(#a)"><path fill="#1A1C1F" fill-rule="evenodd" d="M16.177 14.451a5.02 5.02 0 0 1 4.897 3.997 3.71 3.71 0 0 0 2.904 2.904 5 5 0 0 1 3.173 2.135 1 1 0 1 1-1.662 1.112 2.944 2.944 0 0 0-1.909-1.285 5.71 5.71 0 0 1-4.467-4.465 3.01 3.01 0 0 0-2.936-2.397c-.2 0-.405.021-.591.06a2.98 2.98 0 0 0-1.912 1.282 2.99 2.99 0 0 0-.44 2.257 11.7 11.7 0 0 0 3.173 5.931c.453.455 1.547 1.401 2.02 1.746a1 1 0 1 1-1.181 1.614c-.595-.436-1.776-1.468-2.256-1.95a13.7 13.7 0 0 1-3.716-6.943 4.98 4.98 0 0 1 .734-3.761 4.96 4.96 0 0 1 3.177-2.137c.311-.064.656-.1.992-.1m.977 4.8a7.7 7.7 0 0 0 6.032 6.021 1 1 0 0 1-.398 1.962 9.7 9.7 0 0 1-7.594-7.584 1 1 0 1 1 1.96-.399m-7.651 2.616c.332 1.188.913 2.389 1.68 3.47a1 1 0 1 1-1.63 1.158c-.913-1.286-1.578-2.661-1.976-4.089a1 1 0 1 1 1.926-.539m6.67-15.402c1.264 0 2.517.184 3.726.547a1 1 0 1 1-.576 1.916 11 11 0 0 0-3.15-.463c-6.071 0-11.01 4.939-11.01 11.011q0 .573.059 1.136a1 1 0 0 1-.996 1.104 1.003 1.003 0 0 1-.993-.897 13 13 0 0 1-.07-1.343c0-7.174 5.837-13.011 13.01-13.011m7.43 2.337a13.04 13.04 0 0 1 5.128 7.27 3.005 3.005 0 0 1-2.108 3.681 3 3 0 0 1-.585.097l-.195.005-.178-.004a3.01 3.01 0 0 1-2.722-2.208 7.03 7.03 0 0 0-6.769-5.178c-3.48 0-6.465 2.598-6.943 6.043a1 1 0 0 1-1.982-.275c.615-4.428 4.452-7.768 8.925-7.768a9.03 9.03 0 0 1 8.699 6.654c.143.531.694.847 1.23.703a1 1 0 0 0 .698-1.227 11.04 11.04 0 0 0-4.341-6.152 1 1 0 0 1 1.142-1.641m-7.43-6.337c3.743 0 7.28 1.195 10.267 3.458a1 1 0 1 1-1.207 1.593 14.9 14.9 0 0 0-9.06-3.052 14.9 14.9 0 0 0-9.065 3.055 1 1 0 0 1-.604.204 1 1 0 0 1-.606-1.795 16.84 16.84 0 0 1 10.276-3.463" clip-rule="evenodd"/></g><defs><clipPath id="a"><path fill="#fff" d="M0 0h32v32H0z"/></clipPath></defs></svg>
